resources/svg/windows-o.svg

<svg width="15" height="15" viewBox="0 0 15 15" fill="none" xmlns="http://www.w3.org/2000/svg">
<path d="M0.5 3.5L0.395235 3.0111C0.1647 3.0605 0 3.26423 0 3.5H0.5ZM14.5 0.5H15C15 0.349004 14.9318 0.206095 14.8143 0.111167C14.6969 0.0162391 14.5429 -0.0205393 14.3952 0.0110988L14.5 0.5ZM14.5 14.5L14.4293 14.995C14.5728 15.0155 14.7181 14.9727 14.8276 14.8777C14.9371 14.7828 15 14.6449 15 14.5H14.5ZM0.5 12.5H0C0 12.7488 0.182965 12.9598 0.429289 12.995L0.5 12.5ZM0.604765 3.9889L14.6048 0.988901L14.3952 0.0110988L0.395235 3.0111L0.604765 3.9889ZM14 0.5V14.5H15V0.5H14ZM14.5707 14.005L0.570711 12.005L0.429289 12.995L14.4293 14.995L14.5707 14.005ZM1 12.5V3.5H0V12.5H1ZM0.5 8H14.5V7H0.5V8ZM6 2V13H7V2H6Z" fill="black"/>
</svg>

<svg viewBox="0 0 15 15" fill="none" xmlns="http://www.w3.org/2000/svg" fill="currentColor"><path d="M.5 3.5l-.105-.489A.5.5 0 000 3.5h.5zm14-3h.5a.5.5 0 00-.605-.489L14.5.5zm0 14l-.07.495A.5.5 0 0015 14.5h-.5zm-14-2H0a.5.5 0 00.43.495L.5 12.5zm.105-8.511l14-3-.21-.978-14 3 .21.978zM14 .5v14h1V.5h-1zm.57 13.505l-14-2-.14.99 14 2 .14-.99zM1 12.5v-9H0v9h1zM.5 8h14V7H.5v1zM6 2v11h1V2H6z" fill="currentColor"/></svg>
